src/pos-icons/book-play.svg

<svg height="24" viewBox="0 0 24 24" width="24" xmlns="http://www.w3.org/2000/svg"><path d="m6 22a2 2 0 0 1 -2-2v-16c0-1.11.9-2 2-2h1v7l2.5-1.5 2.5 1.5v-7h6a2 2 0 0 1 2 2v7.5c-.77-.32-1.61-.5-2.5-.5a6.5 6.5 0 0 0 -6.5 6.5c0 1.75.69 3.33 1.81 4.5zm11.5-9c2.5 0 4.5 2 4.5 4.5s-2 4.5-4.5 4.5-4.5-2-4.5-4.5 2-4.5 4.5-4.5m-1.43 2v5l3.93-2.5z"/></svg>

<?xml version="1.0" encoding="UTF-8"?><!DOCTYPE svg PUBLIC "-//W3C//DTD SVG 1.1//EN" "http://www.w3.org/Graphics/SVG/1.1/DTD/svg11.dtd"><svg xmlns="http://www.w3.org/2000/svg" xmlns:xlink="http://www.w3.org/1999/xlink" version="1.1" id="mdi-book-play" width="24" height="24" viewBox="0 0 24 24"><path d="M6,22A2,2 0 0,1 4,20V4C4,2.89 4.9,2 6,2H7V9L9.5,7.5L12,9V2H18A2,2 0 0,1 20,4V11.5C19.23,11.18 18.39,11 17.5,11A6.5,6.5 0 0,0 11,17.5C11,19.25 11.69,20.83 12.81,22H6M17.5,13C20,13 22,15 22,17.5C22,20 20,22 17.5,22C15,22 13,20 13,17.5C13,15 15,13 17.5,13M16.07,15V20L20,17.5L16.07,15Z" /></svg>
